X: 25370
T: Maramarosi Tanc
R: reel
M: 4/4
K: Ddorian
[D2A2] [DA] [D2A2] [DA][DA][DA]|[D2A2] [DA] [D2A2] [DA][DA][DA]|
dddc cA A2|AFAF FD D2|AFAF FA c2|AFAF FD D2|
[Aa][Aa] [Aa] [Ag] [Ag] [Ae] [A2e2]|[De] [Dc] [De] [Dc] [Dc] [DA] [D2A2]|[De] [Dc] [De] [Dc] ce g2|
ecec cA A2|[C2D2] [CD] [C2D2] [CD] [CD] [CD]|[^C2D2] [CD] [C2D2] DDD|
dddc cA A2|AFAF FD D2|AFAF FA c2|AFAF FD D2|
_B2 B B2 ^ccB|_B2 B B2 ^ccA|_B^c ABc ABc|A4 ^G^F3||

